seat-recline-normal.svg

<svg fill="currentColor" viewBox="0 0 24 24"><path d="M7.59 5.41c-.78-.78-.78-2.05 0-2.83s2.05-.78 2.83 0 .78 2.05 0 2.83c-.79.79-2.05.79-2.83 0M6 16V7H4v9a5 5 0 0 0 5 5h6v-2H9a3 3 0 0 1-3-3m14 4.07L14.93 15H11.5v-3.68c1.4 1.15 3.6 2.18 5.5 2.18v-2.18c-1.66.02-3.61-.87-4.67-2.04l-1.4-1.55c-.19-.23-.43-.38-.69-.5-.29-.14-.62-.23-.96-.23h-.03C8 7 7 8 7 9.25V15a3 3 0 0 0 3 3h5.07l3.5 3.5"/></svg>

<svg  viewBox="0 0 24 24" fill="currentColor"><path  d="M7.59,5.41C6.81,4.63 6.81,3.36 7.59,2.58C8.37,1.8 9.64,1.8 10.42,2.58C11.2,3.36 11.2,4.63 10.42,5.41C9.63,6.2 8.37,6.2 7.59,5.41M6,16V7H4V16A5,5 0 0,0 9,21H15V19H9A3,3 0 0,1 6,16M20,20.07L14.93,15H11.5V11.32C12.9,12.47 15.1,13.5 17,13.5V11.32C15.34,11.34 13.39,10.45 12.33,9.28L10.93,7.73C10.74,7.5 10.5,7.35 10.24,7.23C9.95,7.09 9.62,7 9.28,7H9.25C8,7 7,8 7,9.25V15A3,3 0 0,0 10,18H15.07L18.57,21.5"/></svg>
